X:1
T:In pace inidipsum
T:In pace in idipsum
T:Orlando di Lasso
T:Source : Magnum opus musicum---München---N.Henricus---1604. Editor : André Vierendeels (13/04/15).
T:Notes : Original clefs : C1, C1, C1 Original note values have been halved Square bracket indicates ligature Dotted brackets indicate black notes Music collected by Ferdinando and Rodolpho di Lasso
C:Orlando di Lasso
%%score [ 1 2 3 ]
L:1/8
Q:1/4=96
M:2/2
K:F
V:1 treble nm="Superius 1" snm="S 1"
V:2 treble nm="Superius 2" snm="S 2"
V:3 treble nm="Altus" snm="A"
V:1
 z4 c4 | A4 F3 G | AB c2 A2 G2 | A2 F4 ED | E4 F4- | F2 G2 G4- | G4 z4 | F6 B2- | BA/G/ A2 F2 G2- | %9
w: In|pa- ce _|_ _ _ _ in|id- i- * *|psum dor-|* mi- am|_|et re-|* * * * qui- es-|
 G2 c4 =BA | =B8 | z4 c3 c | A2 c2 BA AG/F/ | G2 D2 A4- | A4 B3 c | d3 d d3 G | c4 G3 A | %17
w: |cam,|quo- ni-|am tu Do- * * * *|* mi- ne,|_ sin- gu-|la- ri- ter in|spe, sin- gu-|
 G3 ^F G B3 | A2 A2 c3 B | AG F3 G AB | c2 BA d4 | c2 B3 A AG/F/ | G2 G2 F2 A2 | c3 B AG F2- | %24
w: la- ri- ter in|spe, con sti- *|||* tu- i- * * *|* sti me, con-|sti- * * * *|
 FG AB c2 BA | d4 c2 B2- | BA AG/F/ G2 G2 | F2 D2 A2 F2- | F2 c3 B AB/c/ | d3 d c4- | c8 |] %31
w: |* tu- i-|* * * * * * sti|me, con sti tu-||* sti me.|_|
V:2
 z8 | c4 A4 | F4 c3 c | FG AD G4- | G2 G2 B2 A2 | B8- | B4 z4 | d8 | c4 B4 | e4 d4- | d8 | %11
w: |In pa-|ce in id|i- * * * *|* psum dor- mi-|am|_|et|re- qui-|es- cam,|_|
 z4 z2 c2- | cc A2 F4 | E2 A2 ^F4- | F4 G3 A | G3 ^F G B3 | A4 d3 c | B3 A B G3 | F8 | z2 A2 c3 B | %20
w: quo|_ ni- am tu|Do- mi- ne,|_ sin- gu-|la- ri- ter in|spe, sin- gu-|la- ri- ter in|spe,|con- sti- *|
 AG F2 F4 | A2 G3 F F2- | FE/D/ E2 F4- | F4 z2 A2 | c3 B AG F2 | F4 A2 G2- | GF F3 E/D/ E2 | %27
w: * * * tu-|i- sti _ _|_ _ _ _ me,|_ con|sti- * * * *|tu- * *|* * i- * * sti|
 F6 A2 | cB AG F2 F2 | FF B4 AG | A8 |] %31
w: me, con|sti- * * * * tu-|i- sti me. _ _|_|
V:3
 c4 A4 | F4 z2 c2- | cB AG F2 E2 | D4 C4- | C4 D4- | D2 _E2 D4- | D4 z4 | B,8 | F3 E D2 _E2 | %9
w: In pa-|ce in|_ _ _ _ _ id-|i- psum|_ dor-|* mi- am|_|et|re- * * qui-|
 C4 G4- | G8 | z4 A3 A | F4 D4 | C2 F2 D4- | D4 d3 c | B3 A B G3 | F4 B3 c | d3 d d3 G | c4 z2 A2 | %19
w: es- cam,|_|quo- ni-|am tu|Do- mi- ne,|_ sin- gu-|la- ri- ter in|spe, sin- gu-|la- ri- ter in|spe, con-|
 c3 B AG F2 | F2 D2 B,C DE | FC _E2 D4 | C4 D4 | z2 A2 c3 B | AG F4 D2 | B,C DE FC _E2 | D4 C4 | %27
w: sti- * * * *|* * tu- * * *|* * i- sti|_ me,|con sti- *||tu- * * * * * i-|sti me,|
 z2 A2 c3 B | AG FG A2 D2 | B,2 B,2 F4- | F8 |] %31
w: con- sti- *|* * * * * tu-|i- sti me.|_|

